picto/tracks-67-it-small.svg

<svg class="color-immutable" width="24" height="24" viewBox="0 0 24 24" fill="none" xmlns="http://www.w3.org/2000/svg"><path d="M0 22.5V1.5C0 0.675 0.675 0 1.5 0H22.5C23.325 0 24 0.675 24 1.5V22.5C24 23.325 23.325 24 22.5 24H1.5C0.675 24 0 23.325 0 22.5Z" fill="#2D327D"/><path d="M11.081 12.565H8.94301C8.74301 11.699 8.25101 11.265 7.46601 11.265C6.63501 11.265 6.04601 11.775 5.69701 12.795C5.55301 13.21 5.43801 13.838 5.35101 14.679C5.68901 14.223 6.05001 13.895 6.43201 13.695C6.81401 13.495 7.27401 13.395 7.81201 13.395C8.86801 13.395 9.71701 13.769 10.358 14.518C10.968 15.226 11.273 16.113 11.273 17.179C11.273 18.445 10.863 19.463 10.043 20.232C9.30501 20.924 8.41801 21.27 7.38201 21.27C6.05401 21.27 5.02101 20.769 4.28301 19.767C3.54501 18.765 3.17601 17.366 3.17601 15.572C3.17601 13.655 3.57101 12.152 4.36001 11.065C5.12401 10.014 6.16701 9.488 7.49001 9.488C8.73601 9.488 9.68901 9.906 10.351 10.742C10.73 11.225 10.973 11.832 11.081 12.565ZM7.27401 15.142C6.73601 15.142 6.30801 15.368 5.99001 15.819C5.70301 16.219 5.55901 16.696 5.55901 17.249C5.55901 17.798 5.70501 18.277 5.99701 18.687C6.31501 19.143 6.75101 19.371 7.30401 19.371C7.84201 19.371 8.27601 19.153 8.60401 18.717C8.91201 18.307 9.06501 17.822 9.06501 17.264C9.06501 16.715 8.92701 16.246 8.65001 15.857C8.31201 15.38 7.85401 15.142 7.27401 15.142Z" fill="white"/><path d="M20.543 9.758V11.665C20.481 11.732 20.299 11.939 19.997 12.288C19.577 12.77 19.159 13.376 18.743 14.107C18.328 14.838 18.005 15.539 17.774 16.21C17.287 17.61 16.992 19.207 16.89 21.001H14.567C14.582 20.155 14.73 19.217 15.009 18.186C15.288 17.155 15.674 16.125 16.166 15.094C16.868 13.638 17.581 12.554 18.304 11.841H12.998V9.758H20.543Z" fill="white"/><path d="M3.00101 3H4.01301C4.23001 3 4.39201 3.027 4.49901 3.082C4.59901 3.133 4.67501 3.208 4.72701 3.305C4.77001 3.387 4.79101 3.474 4.79101 3.566C4.79101 3.669 4.76501 3.76 4.71301 3.84C4.66001 3.92 4.58401 3.983 4.48501 4.029C4.57101 4.058 4.63601 4.088 4.67901 4.12C4.82501 4.227 4.89701 4.382 4.89701 4.586C4.89701 4.707 4.87001 4.816 4.81601 4.912C4.76201 5.008 4.68501 5.086 4.58501 5.144C4.46601 5.214 4.30601 5.249 4.10401 5.249H3.00101V3ZM3.49101 3.386V3.91H3.94001C4.04501 3.91 4.12101 3.898 4.17101 3.873C4.26201 3.829 4.30801 3.753 4.30801 3.645C4.30801 3.554 4.27901 3.488 4.22201 3.447C4.16501 3.407 4.07101 3.386 3.94001 3.386H3.49101ZM3.49101 4.246V4.863H3.98801C4.13101 4.863 4.23101 4.843 4.28801 4.803C4.36401 4.749 4.40201 4.666 4.40201 4.555C4.40201 4.423 4.35101 4.332 4.24801 4.284C4.19201 4.259 4.09701 4.246 3.96401 4.246H3.49101Z" fill="white"/><path d="M5.63701 3V3.401H5.19101V3H5.63701ZM5.63701 3.572V5.249H5.19101V3.572H5.63701Z" fill="white"/><path d="M6.417 3.574V3.809C6.469 3.737 6.518 3.684 6.563 3.651C6.674 3.565 6.807 3.522 6.963 3.522C7.1 3.522 7.217 3.557 7.312 3.627C7.388 3.682 7.441 3.752 7.471 3.837C7.501 3.922 7.516 4.041 7.516 4.195V5.25H7.072V4.287C7.072 4.179 7.063 4.1 7.044 4.05C7.027 4.006 6.997 3.972 6.955 3.946C6.907 3.918 6.852 3.904 6.791 3.904C6.723 3.904 6.662 3.92 6.606 3.953C6.551 3.986 6.51 4.031 6.483 4.087C6.453 4.151 6.438 4.25 6.438 4.384V5.248H5.992V3.574H6.417Z" fill="white"/><path d="M9.37901 5.249H8.92401C8.90401 5.183 8.89501 5.127 8.89501 5.081C8.75601 5.224 8.57601 5.295 8.35501 5.295C8.18301 5.295 8.04801 5.255 7.95201 5.175C7.84101 5.083 7.78601 4.954 7.78601 4.789C7.78601 4.579 7.88101 4.433 8.07101 4.352C8.14801 4.319 8.28901 4.289 8.49601 4.261C8.67301 4.237 8.78401 4.215 8.82701 4.193C8.87001 4.171 8.89201 4.126 8.89201 4.06C8.89201 3.913 8.79501 3.84 8.60001 3.84C8.49601 3.84 8.42101 3.858 8.37301 3.895C8.32501 3.932 8.29301 3.996 8.27801 4.087H7.85601C7.87001 3.901 7.94001 3.76 8.06701 3.665C8.19401 3.57 8.37501 3.523 8.61001 3.523C8.86901 3.523 9.06101 3.576 9.18501 3.681C9.24301 3.731 9.28101 3.783 9.30001 3.84C9.31901 3.896 9.32801 3.986 9.32801 4.108C9.32801 4.134 9.32601 4.246 9.32301 4.446C9.32201 4.648 9.32101 4.764 9.32101 4.793C9.32101 4.915 9.32501 5.004 9.33201 5.061C9.33901 5.119 9.35501 5.181 9.37901 5.249ZM8.88901 4.438C8.83101 4.474 8.72601 4.502 8.57501 4.523C8.46801 4.539 8.39101 4.56 8.34401 4.586C8.27701 4.622 8.24401 4.683 8.24401 4.769C8.24401 4.839 8.26601 4.893 8.31001 4.932C8.35401 4.971 8.41601 4.99 8.49501 4.99C8.62601 4.99 8.73201 4.944 8.81301 4.852C8.84201 4.82 8.86201 4.787 8.87201 4.753C8.88301 4.719 8.88801 4.673 8.88801 4.617V4.438H8.88901Z" fill="white"/><path d="M10.716 3.541V3.973C10.644 3.96 10.586 3.953 10.542 3.953C10.376 3.953 10.254 4.023 10.176 4.162C10.132 4.24 10.11 4.37 10.11 4.553V5.248H9.664V3.568H10.089V3.874C10.21 3.646 10.386 3.533 10.617 3.533C10.644 3.534 10.678 3.536 10.716 3.541Z" fill="white"/><path d="M11.373 3V3.401H10.927V3H11.373ZM11.373 3.572V5.249H10.927V3.572H11.373Z" fill="white"/><path d="M12.534 3.523C12.778 3.523 12.977 3.604 13.132 3.766C13.285 3.926 13.361 4.139 13.361 4.406C13.361 4.682 13.279 4.902 13.116 5.066C12.963 5.219 12.764 5.295 12.519 5.295C12.258 5.295 12.049 5.21 11.895 5.04C11.747 4.878 11.674 4.668 11.674 4.409C11.674 4.155 11.746 3.948 11.889 3.789C12.048 3.612 12.263 3.523 12.534 3.523ZM12.511 3.871C12.393 3.871 12.299 3.919 12.23 4.014C12.159 4.11 12.124 4.242 12.124 4.409C12.124 4.582 12.159 4.715 12.229 4.807C12.301 4.9 12.399 4.947 12.523 4.947C12.639 4.947 12.731 4.904 12.798 4.819C12.875 4.725 12.913 4.588 12.913 4.408C12.913 4.24 12.879 4.109 12.811 4.016C12.74 3.919 12.64 3.871 12.511 3.871Z" fill="white"/></svg>

<svg class="color-immutable" width="24" height="24" viewBox="0 0 24 24" fill="none" xmlns="http://www.w3.org/2000/svg"><g clip-path="url(#a)"><path d="M0 22.5v-21C0 .675.675 0 1.5 0h21c.825 0 1.5.675 1.5 1.5v21c0 .825-.675 1.5-1.5 1.5h-21C.675 24 0 23.325 0 22.5Z" fill="#2D327D"/><path d="M11.081 12.565H8.943c-.2-.866-.692-1.3-1.477-1.3-.831 0-1.42.51-1.769 1.53-.144.415-.259 1.043-.346 1.884.338-.456.699-.784 1.081-.984.382-.2.842-.3 1.38-.3 1.056 0 1.905.374 2.546 1.123.61.708.915 1.595.915 2.661 0 1.266-.41 2.284-1.23 3.053-.738.692-1.625 1.038-2.661 1.038-1.328 0-2.361-.501-3.099-1.503-.738-1.002-1.107-2.401-1.107-4.195 0-1.917.395-3.42 1.184-4.507.764-1.051 1.807-1.577 3.13-1.577 1.246 0 2.199.418 2.861 1.254.379.483.622 1.09.73 1.823Zm-3.807 2.577c-.538 0-.966.226-1.284.677-.287.4-.431.877-.431 1.43 0 .549.146 1.028.438 1.438a1.51 1.51 0 0 0 1.307.684 1.55 1.55 0 0 0 1.3-.654c.308-.41.461-.895.461-1.453 0-.549-.138-1.018-.415-1.407-.338-.477-.796-.715-1.376-.715ZM20.543 9.758v1.907c-.062.067-.244.274-.546.623-.42.482-.838 1.088-1.254 1.819a12.59 12.59 0 0 0-.969 2.103c-.487 1.4-.782 2.997-.884 4.791h-2.323c.015-.846.163-1.784.442-2.815a18.244 18.244 0 0 1 1.157-3.092c.702-1.456 1.415-2.54 2.138-3.253h-5.306V9.758h7.545ZM3.001 3h1.012c.217 0 .379.027.486.082.1.051.176.126.228.223a.554.554 0 0 1 .064.261.49.49 0 0 1-.306.463.721.721 0 0 1 .194.091c.146.107.218.262.218.466 0 .121-.027.23-.081.326a.612.612 0 0 1-.231.232c-.119.07-.279.105-.481.105H3.001V3Zm.49.386v.524h.449a.539.539 0 0 0 .231-.037c.091-.044.137-.12.137-.228 0-.091-.029-.157-.086-.198-.057-.04-.151-.061-.282-.061h-.449Zm0 .86v.617h.497c.143 0 .243-.02.3-.06.076-.054.114-.137.114-.248 0-.132-.051-.223-.154-.271a.76.76 0 0 0-.284-.038h-.473ZM5.637 3v.401h-.446V3h.446Zm0 .572v1.677h-.446V3.572h.446ZM6.417 3.574v.235a.633.633 0 0 1 .546-.287c.137 0 .254.035.349.105a.432.432 0 0 1 .159.21c.03.085.045.204.045.358V5.25h-.444v-.963a.722.722 0 0 0-.028-.237.21.21 0 0 0-.089-.104.356.356 0 0 0-.349.007.312.312 0 0 0-.123.134.738.738 0 0 0-.045.297v.864h-.446V3.574h.425ZM9.379 5.249h-.455a.591.591 0 0 1-.029-.168.72.72 0 0 1-.54.214c-.172 0-.307-.04-.403-.12a.474.474 0 0 1-.166-.386c0-.21.095-.356.285-.437.077-.033.218-.063.425-.091.177-.024.288-.046.331-.068.043-.022.065-.067.065-.133 0-.147-.097-.22-.292-.22-.104 0-.179.018-.227.055-.048.037-.08.101-.095.192h-.422a.549.549 0 0 1 .211-.422c.127-.095.308-.142.543-.142.259 0 .451.053.575.158.058.05.096.102.115.159a.915.915 0 0 1 .028.268l-.005.338-.002.347c0 .122.004.211.011.268a.89.89 0 0 0 .047.188Zm-.49-.811a.882.882 0 0 1-.314.085.734.734 0 0 0-.231.063c-.067.036-.1.097-.1.183 0 .07.022.124.066.163a.27.27 0 0 0 .185.058.403.403 0 0 0 .318-.138.258.258 0 0 0 .059-.099.46.46 0 0 0 .016-.136v-.179h.001ZM10.716 3.541v.432a1.038 1.038 0 0 0-.174-.02.391.391 0 0 0-.366.209c-.044.078-.066.208-.066.391v.695h-.446v-1.68h.425v.306c.121-.228.297-.341.528-.341.027.001.061.003.099.008ZM11.373 3v.401h-.446V3h.446Zm0 .572v1.677h-.446V3.572h.446ZM12.534 3.523a.79.79 0 0 1 .598.243c.153.16.229.373.229.64 0 .276-.082.496-.245.66a.807.807 0 0 1-.597.229c-.261 0-.47-.085-.624-.255-.148-.162-.221-.372-.221-.631 0-.254.072-.461.215-.62.159-.177.374-.266.645-.266Zm-.023.348a.33.33 0 0 0-.281.143.652.652 0 0 0-.106.395c0 .173.035.306.105.398.072.093.17.14.294.14a.332.332 0 0 0 .275-.128c.077-.094.115-.231.115-.411 0-.168-.034-.299-.102-.392a.35.35 0 0 0-.3-.145Z" fill="#fff"/></g><defs><clipPath id="a"><path fill="#fff" d="M0 0h24v24H0z"/></clipPath></defs></svg>
